X: 767
T: Ora Lee
C:Trad. Old-Time
B: jims roots
M:4/4
L:1/8
Q: 1/4=100
K:G
V:1 
%N:TablEdited by Wendy Anthony  25 Aug 2004
%Q:320
GE |: "G"D2 G2 [G2B,2] AB | "Am"AGEG "D"[A3D] G | F2 D2 ED F2 | "G"[G3G,] A BAGE |
D2 G2 [G2B,2] AB | "Am"AGEG "D"[A3D] G | F2 D2 ED F2 |[1 "G"[G3B,]A [G3B,] E :|[2 "G"[G4B,] G3 A||
|: "G"[B3D3G,3]c BAGA | ([B4D4G,4][B2D2G,2]) c2 | BAGE DE G2 | (B4 B2) AB |
"C"c3c c2B2 | "D"AGFG A3G | F2 D2 E2 F2 |[1 "G"[B,3G3]G [B,3G3]A :|[2 "G"([B,4G4][B,3G3]) E|]
% abcbook-tune_id 6298c279f6ba1a5ab61a6103


% abcbook-boost 0
% abcbook-tablature 
% abcbook-transpose 
% abcbook-lastupdated 1654178426228
% abcbook-soundfonts 
% abcbook-repeats 1


